X:1
T:De Alpen- Express
T: Laukens Music Productions  
T:Mars
T:DE ALPEN- EXPRESS
T:Arr. H. Laukens
T:DE ALPEN- EXPRESS blad 2 van 
T: Laukens Music Productions  
C:Traditional
Z:All Rights Reserved
L:1/4
Q:1/4=230
M:4/4
K:A
V:1 treble nm="MusicXML Part"
%%MIDI program 0
%%MIDI control 7 102
%%MIDI control 10 64
V:1
"E7" [de]/E/ [de]/E/ [de] z | [de]/E/ [de]/E/ [de] e/e/ | e d c B |"A" A z z2 || %4
"A"S C/C/ C/C/ C z | z C ^B, C | F3/2 F/ F =F | E4 | C/C/ C/C/ C z | z C B, C |"E7" D4- | D4 | %12
 D/D/ D/D/ D z | z D C D | A3/2 A/ A A | G4 | G3/2 G/ G G | G A F G |"A" E4- | E4 | %20
"A" C/C/ C/C/ C z | z C ^B, C | F3/2 F/ F F | E4 | C/C/ C/C/ C z |"A7" z C D E |"D" F4- | F3 F | %28
 A3/2 A/ A A | A A G F |"A" E3/2 A/ A A | A2 G F |"E7" E z z2 | z2 G3/2 F/ | E z z2 | z2 G3/2 F/ | %36
 E E E E | E E E F | E DO C B,!dacoda! ||"A" A, z G, z | F, z E, z |"B7" B, z A, z | G, z F, z || %43
[K:E]"E" B,3/2 B,/ B, B, | B,2 G, B, | E3/2 E/ E C | B,4 | B,3/2 B,/ B, B, | E E D C |"B7" D4- | %50
 D3 D | F3/2 F/ F F | F F F E | E3/2 D/ D D | D4 | D3/2 D/ D D | D D C C |"E" B,4- | %58
"E7" B,2 B,3/2 B,/ |"A" C3/2 C/ C C | E2 E E |"E" B,3/2 B,/ B, B, | E4 |"B7" D D D D | D D C C | %65
"E" B,4- |"E7" B,2 B,3/2 B,/ |"A" C3/2 C/ C C | E2 E E |"E""E" B,3/2 B,/ B, B, | E2 F3/2 E/ | %71
"B7" D D D C | B, B, C D | E4- |"E7" E4S ||[K:C]"^TRIO" C4- | C C D E ||[K:D]"D" A3 G | F4 | A3 G | %80
 F2 A3/2 A/ | A2 F2 | E2 F2 |"A7" G4- | G A/A/ A/A/ A/A/ | B3 A | G4 | B3 A | G2 c3/2 c/ | c2 c2 | %90
 c2 B2 |"D" A4- | A4 |"D" A3 G | F4 | A3 G | F2 A3/2 A/ | A2 F2 | E2 F2 |"A7" G4- | %100
 G A/A/ A/A/ A/A/ | B3 A | G4 | B3 A | G2 A3/2 A/ | F2 F2 | F2 E2 |"D" D4 |"E7" E4S || %109
[K:A]O A, z G3/2 F/ |"E7" E z z2 | z2 G3/2 F/ |"E7" E z z2 | z2 G3/2 F/ | E E E E | E E E F | %116
 E D C B, |"A" A, z A z |] %118

